X: 29
M:6/8
L:1/8
K:G
ud|vBGG BGG|BcB BAB|GBd gdB|ABA (A2c)|
ud|vbgg agf|gfe dBd|bgg afd|(ea)a a2 u(g/a/)|
vbgg agf|gfe dcB|def gdB|AGG G z :|


